icons/sun-foggy-fill.svg

<svg xmlns="http://www.w3.org/2000/svg" width="24" height="24" fill="none"><g clip-path="url(#a)"><g><path fill="#121212" d="M6.341 14C5.91648 12.7993 5.88504 11.4946 6.25122 10.2748C6.61741 9.05504 7.36223 7.98341 8.37789 7.21504C9.39355 6.44666 10.6274 6.02139 11.9008 6.00079C13.1742 5.98018 14.4211 6.36529 15.4611 7.1004C16.5011 7.83551 17.2802 8.88247 17.6856 10.0898C18.0911 11.2971 18.1019 12.6021 17.7165 13.8159C17.331 15.0297 16.5693 16.0894 15.5416 16.8417C14.514 17.5939 13.2736 17.9995 12 18V14H6.341ZM6 20H15V22H6V20ZM1 11H4V13H1V11ZM2 16H10V18H2V16ZM11 1H13V4H11V1ZM3.515 4.929L4.929 3.515L7.05 5.636L5.636 7.05L3.515 4.93V4.929ZM16.95 18.364L18.364 16.95L20.485 19.071L19.071 20.485L16.95 18.364ZM19.071 3.514L20.485 4.929L18.364 7.05L16.95 5.636L19.071 3.515V3.514ZM23 11V13H20V11H23Z"/></g></g><defs><clipPath id="a"><rect width="24" height="24" fill="white"/></clipPath></defs></svg>

<svg width="24" height="24" fill="none" xmlns="http://www.w3.org/2000/svg"><g clip-path="url(#a)"><path d="M6.341 14A6 6 0 1 1 12 18v-4H6.341ZM6 20h9v2H6v-2Zm-5-9h3v2H1v-2Zm1 5h8v2H2v-2Zm9-15h2v3h-2V1ZM3.515 4.929l1.414-1.414L7.05 5.636 5.636 7.05 3.515 4.93v-.001ZM16.95 18.364l1.414-1.414 2.121 2.121-1.414 1.414-2.121-2.121Zm2.121-14.85 1.414 1.415-2.121 2.121-1.414-1.414 2.121-2.121v-.001ZM23 11v2h-3v-2h3Z" /></g><defs><clipPath id="a"><path fill="#fff" d="M0 0h24v24H0z"/></clipPath></defs></svg>
